X:1
T:33
T:33
T:Études enfantines op. 37
T:Henry Lemoine
C:Henry Lemoine
%%score { 1 | ( 2 3 ) }
L:1/8
Q:1/4=120
M:4/4
K:G
V:1 treble nm="Piano" snm="Pno."
V:2 bass 
V:3 bass 
V:1
!p!"^Moderato" (!5!e/!4!d/!2!B/!1!G/ e/d/B/G/ !5!a/!4!g/!2!d/!1!B/ a/g/d/B/ | %1
"_cresc." !5!g/!4!f/!2!c/!1!A/ g/f/c/A/ g/f/c/A/ g/f/c/A/) | %2
!mf! (!4!e/!3!d/!2!c/!1!A/ e/d/c/A/ !5!b/a/f/c/ b/a/f/c/ | %3
!<(! !5!a/g/d/B/ a/g/d/B/ a/g/d/B/ a/g/d/B/)!<)! | %4
!f! (!5!c'/b/=f/d/ c'/b/f/d/ c'/b/f/d/ c'/b/f/d/ | b/a/e/c/ b/a/e/c/"_dim." b/a/_e/c/ b/a/e/c/) | %6
 (a/g/d/B/ a/g/d/B/ g/f/d/A/ g/f/d/A/ |!p! a/g/d/B/ a/g/d/B/ !2!G2) z2!fine! |] %8
!f! !1!!3![df]4 [df]2 [df]2 | (!1!!4![df]4 !2!!3![^ce]4) | !2!!4![e=g]4 [eg]2 [eg]2 | %11
!>(! ([eg]4!>)! [df]4) |!f! z/!>(! (!5!d'/^c'/b/ a/g/!3!f/e/ d/!4!^c/B/!>)!A/ G/!3!F/E/D/) | %13
!f! z/!>(! (!5!e'/d'/^c'/ b/a/!4!g/f/ e/d/!4!^c/!>)!B/ A/G/!3!F/E/) | %14
!mf! (D/E/F/!1!G/ !2!^G/"_cresc."!1!A/B/^c/ !1!d/e/f/!1!=g/ !2!^g/!1!a/b/^c'/ | %15
!f! !4!d'/!>(!^c'/d'/e'/ d'/=c'/b/!1!a/ !4!=g/!>)!"_poco rallentando"f/e/!1!d/ !2!^c/!3!d/=c/d/)!D.C.! |] %16
V:2
 !2!!1![G,B,]8 | [A,C]8 | !3!!2!!1![F,A,C]8 | [G,B,]4 [G,B,]2 [G,B,]2 | %4
 !5!!2!!1![G,D=F]4 !5!!2!!1![^G,DF]2 [G,DF]2 | [A,CE]8 | [D,G,B,]4 [D,A,C]2 [D,A,C]2 | %7
 [G,B,]6 z2 |] z/ (D,/E,/F,/ G,/A,/!3!B,/^C/ D/!3!C/D/E/[K:treble] !3!F/E/F/^G/ | %9
 A/^G/A/G/ A/G/A/G/ A/G/F/!1!E/[K:bass] D/^C/B,/A,/) | %10
 z/ (!5!A,,/B,,/^C,/ D,/E,/!3!F,/^G,/ A,/!3!G,/A,/B,/ !2!^C/!4!A,/B,/C/ | %11
 D/^C/D/C/ D/C/D/C/ D/C/B,/!1!A,/ =G,/F,/E,/D,/) | !3!!1![F,A,]6 [F,A,]2 | %13
 !2!!1![G,B,]6 !5!!3!!1![G,,B,,E,]2 | !5!!2!!1![A,,D,F,]6 !5!!2!!1![A,,E,G,]2 | !3!!2![D,F,]6 z2 |] %16
V:3
 x4 D,2 D,2 | x4 D,2 D,2 | x4 D,2 D,2 | x8 | x8 | x4 [C,_E,A,]2 [C,E,A,]2 | x8 | x8 |] %8
 x6[K:treble] x2 | x6[K:bass] x2 | x8 | x8 | x8 | x8 | x8 | x8 |] %16

